X: 181
T: Sister, I Bring You a Horse
C: Teton Sioux band 1911-1914
N: Derived from sioux176.krn
O: South Dakota, U.S.A.
N: Teton Sioux Music by Frances Densmore, 1918
Z: transcribed to **kern format by Craig Sapp
L: 1/8
M: 2/4
Q: 1/4=58
K: Bb clef=bass
%%linebreak <none>
D4 [I:setbarnb 2]| 
C/> D/ C B,/ G,3/ | 
B,2B,2 | 
D (3C/ D/ C/ B,3/ G,/ | 
B,< G, G,3/ G,/ | 
G, G, F, D, ||  
[M:3/4]B,2B,2B,3/ G,/ | 
B,< G, G, G, F, D, | 
F,< F, D,3/ D,/ | 
D,4 [I:setbarnb 9]||  
[M:3/4]D,4-D, D, ||  
[M:2/4]D> DD2 | 
(3D C B, B,/ G,3/ | 
B,< G, G,3/ G,/ | 
B,< G, F,3/ D,/ ||  
[M:3/4]B,> B,B,2B,3/ G,/ | 
B,< G, G, G, F,3/ D,/ ||  
[M:2/4]F,< F, D,3/ D,/ | 
D,4 | 
D,2z2 |]  



